X: 1
T:Marche Nuptiale
M:6/8
L:1/8
K:G
DGB DGB|BAG A2F|DFA DFA|cBA B2G|
DGB DGB|BAG A2F|DFA DFA|cAF G3:||:
DGB d2^c|d2 =cA3|DFA c2B|c2dB3|
DGB d2^c|d2=cA3|DFA cAF|DEF G3:||
